packages/foundations/assets/icons/functional/images/transportation/train_and_car_inverted.svg

<svg xmlns="http://www.w3.org/2000/svg" width="32" height="32" fill="none"><path fill="#1A1C1F" fill-rule="evenodd" d="M9.067 2.106c-1.938.278-3.346 1.036-4.504 2.424a10.74 10.74 0 0 0-2.403 5.676c-.115 1.045-.196 4.714-.131 5.933.085 1.591.143 2.108.256 2.261.054.073.429.601.832 1.173.964 1.365 1.384 1.878 2.146 2.617.929.902 2.936 2.356 3.621 2.624.228.088 1.034.219 1.078.175.033-.033-.103-1.343-.145-1.403-.016-.025-.162-.113-.324-.196-.775-.399-1.502-1.064-1.752-1.602-.21-.452-1.038-3.144-1.034-3.364.009-.628.575-1.056 1.214-.92.407.087.614.338.819.992l.172.55.187-.163c.28-.246.764-.47 1.174-.543.202-.036.371-.067.376-.069.004-.002.167-.688.36-1.524.194-.836.386-1.619.426-1.739l.073-.219-.647-.035c-.812-.043-2.75-.323-3.198-.462-.692-.213-1.351-.786-1.684-1.463-.302-.612-.806-2.803-.806-3.5s.244-1.494.646-2.11c.294-.452.915-1.031 1.39-1.295 1.155-.643 3.002-.955 5.298-.894 2.436.063 4.018.511 4.992 1.413 1.165 1.079 1.527 2.419 1.148 4.25-.127.611-.314 1.356-.392 1.558-.021.056.285.069 1.581.069 1.708 0 1.901-.025 2.026-.259.073-.136.075-1.028.003-1.703-.233-2.187-1.094-4.243-2.456-5.86-1.039-1.234-2.236-1.942-3.916-2.316-.507-.113-.666-.12-3.226-.134-2.053-.011-2.814.003-3.2.058m5.493 11.97a2.6 2.6 0 0 0-.965.596c-.434.446-.53.718-1.063 3.035a234 234 0 0 1-.512 2.2c-.024.083-.109.093-.789.093-.705 0-.775.009-.943.122-.251.169-.331.433-.299.985.042.721.211.877.984.911l.504.022-.033.221c-.04.264.363 3.82.478 4.227.058.204.078.589.079 1.494.001 1.074.013 1.244.101 1.438.2.44.699.649 1.411.589.674-.056 1.044-.412 1.09-1.048l.021-.298.835.09c1.633.176 2.669.229 4.541.229 1.874 0 2.908-.053 4.547-.229l.84-.091v.221c0 .661.4 1.067 1.108 1.127.703.059 1.204-.152 1.403-.59.088-.194.1-.365.101-1.447.002-.92.022-1.291.08-1.484.102-.336.463-3.395.471-3.99l.007-.461.487-.021c.764-.033.937-.201.972-.945.027-.552-.057-.804-.319-.964-.156-.095-.269-.108-.933-.108-.675 0-.76-.01-.784-.093-.014-.052-.246-1.039-.513-2.194-.268-1.155-.525-2.199-.572-2.32-.119-.303-.418-.751-.614-.915a3 3 0 0 0-.435-.281l-.273-.144-5.44-.009c-2.992-.005-5.5.009-5.573.032m10.517 1.685a.5.5 0 0 1 .176.166c.063.097.987 3.887.987 4.049 0 .013-2.808.024-6.24.024s-6.24-.013-6.24-.029c0-.118.93-3.958.979-4.04.155-.263.031-.258 5.314-.23 2.714.014 4.974.041 5.024.06m-21.93 7.196c0 .037.12.509.267 1.049.2.736.34 1.13.563 1.578.303.613.813 1.417 1.177 1.857.311.376.926.847 1.43 1.097.427.212.449.231.421.371-.035.174.062.5.208.697.057.077.203.197.325.267.215.123.258.127 1.36.127h1.137l.162-.181c.149-.167.16-.204.13-.454a20 20 0 0 1-.033-1.343l-.001-1.072-.706-.034c-1.185-.058-1.528-.178-2.68-.943-1.421-.942-2.619-1.896-3.4-2.708-.198-.206-.36-.344-.36-.308m11.15.194c.941.188 1.149.29 1.323.649.283.584-.009 1.243-.622 1.402-.233.06-.336.052-1.055-.092-.897-.178-1.13-.291-1.302-.628-.214-.42-.094-1.026.253-1.273.122-.087.389-.192.55-.218.017-.002.401.07.853.16m12.45-.105c.298.083.49.234.619.486.226.443.082 1.033-.314 1.29-.138.09-.442.178-.995.288-.719.144-.822.152-1.055.092-.611-.159-.905-.818-.624-1.398.174-.36.35-.45 1.249-.639.956-.202.858-.191 1.12-.119m-4.347.788c.223.121.475.389.529.562.125.4.333 1.613.305 1.782-.072.445-.517.809-.989.809-.49 0-.859-.331-.976-.876l-.07-.324-1.206-.015-1.206-.014-.036.225c-.057.356-.215.656-.434.823-.179.137-.245.154-.584.154-.336 0-.405-.018-.578-.15-.242-.185-.409-.5-.406-.768.001-.111.069-.529.151-.929.266-1.295.257-1.289 2.06-1.331 2.142-.049 3.286-.032 3.44.052"/></svg>

<svg width="32" height="32" viewBox="0 0 32 32" fill="none" xmlns="http://www.w3.org/2000/svg"><path d="M9.067 2.106 C 7.129 2.384,5.721 3.142,4.563 4.530 C 3.236 6.121,2.389 8.120,2.160 10.206 C 2.045 11.251,1.964 14.920,2.029 16.139 C 2.114 17.730,2.172 18.247,2.285 18.400 C 2.339 18.473,2.714 19.001,3.117 19.573 C 4.081 20.938,4.501 21.451,5.263 22.190 C 6.192 23.092,8.199 24.546,8.884 24.814 C 9.112 24.902,9.918 25.033,9.962 24.989 C 9.995 24.956,9.859 23.646,9.817 23.586 C 9.801 23.561,9.655 23.473,9.493 23.390 C 8.718 22.991,7.991 22.326,7.741 21.788 C 7.531 21.336,6.703 18.644,6.707 18.424 C 6.716 17.796,7.282 17.368,7.921 17.504 C 8.328 17.591,8.535 17.842,8.740 18.496 L 8.912 19.046 9.099 18.883 C 9.379 18.637,9.863 18.413,10.273 18.340 C 10.475 18.304,10.644 18.273,10.649 18.271 C 10.653 18.269,10.816 17.583,11.009 16.747 C 11.203 15.911,11.395 15.128,11.435 15.008 L 11.508 14.789 10.861 14.754 C 10.049 14.711,8.111 14.431,7.663 14.292 C 6.971 14.079,6.312 13.506,5.979 12.829 C 5.677 12.217,5.173 10.026,5.173 9.329 C 5.173 8.632,5.417 7.835,5.819 7.219 C 6.113 6.767,6.734 6.188,7.209 5.924 C 8.364 5.281,10.211 4.969,12.507 5.030 C 14.943 5.093,16.525 5.541,17.499 6.443 C 18.664 7.522,19.026 8.862,18.647 10.693 C 18.520 11.304,18.333 12.049,18.255 12.251 C 18.234 12.307,18.540 12.320,19.836 12.320 C 21.544 12.320,21.737 12.295,21.862 12.061 C 21.935 11.925,21.937 11.033,21.865 10.358 C 21.632 8.171,20.771 6.115,19.409 4.498 C 18.370 3.264,17.173 2.556,15.493 2.182 C 14.986 2.069,14.827 2.062,12.267 2.048 C 10.214 2.037,9.453 2.051,9.067 2.106 M14.560 14.076 C 14.245 14.174,13.831 14.429,13.595 14.672 C 13.161 15.118,13.065 15.390,12.532 17.707 C 12.266 18.865,12.035 19.855,12.020 19.907 C 11.996 19.990,11.911 20.000,11.231 20.000 C 10.526 20.000,10.456 20.009,10.288 20.122 C 10.037 20.291,9.957 20.555,9.989 21.107 C 10.031 21.828,10.200 21.984,10.973 22.018 L 11.477 22.040 11.444 22.261 C 11.404 22.525,11.807 26.081,11.922 26.488 C 11.980 26.692,12.000 27.077,12.001 27.982 C 12.002 29.056,12.014 29.226,12.102 29.420 C 12.302 29.860,12.801 30.069,13.513 30.009 C 14.187 29.953,14.557 29.597,14.603 28.961 L 14.624 28.663 15.459 28.753 C 17.092 28.929,18.128 28.982,20.000 28.982 C 21.874 28.982,22.908 28.929,24.547 28.753 L 25.387 28.662 25.387 28.883 C 25.387 29.544,25.787 29.950,26.495 30.010 C 27.198 30.069,27.699 29.858,27.898 29.420 C 27.986 29.226,27.998 29.055,27.999 27.973 C 28.001 27.053,28.021 26.682,28.079 26.489 C 28.181 26.153,28.542 23.094,28.550 22.499 L 28.557 22.038 29.044 22.017 C 29.808 21.984,29.981 21.816,30.016 21.072 C 30.043 20.520,29.959 20.268,29.697 20.108 C 29.541 20.013,29.428 20.000,28.764 20.000 C 28.089 20.000,28.004 19.990,27.980 19.907 C 27.966 19.855,27.734 18.868,27.467 17.713 C 27.199 16.558,26.942 15.514,26.895 15.393 C 26.776 15.090,26.477 14.642,26.281 14.478 C 26.191 14.402,25.996 14.276,25.846 14.197 L 25.573 14.053 20.133 14.044 C 17.141 14.039,14.633 14.053,14.560 14.076 M25.077 15.761 C 25.126 15.780,25.206 15.855,25.253 15.927 C 25.316 16.024,26.240 19.814,26.240 19.976 C 26.240 19.989,23.432 20.000,20.000 20.000 C 16.568 20.000,13.760 19.987,13.760 19.971 C 13.760 19.853,14.690 16.013,14.739 15.931 C 14.894 15.668,14.770 15.673,20.053 15.701 C 22.767 15.715,25.027 15.742,25.077 15.761 M3.147 22.957 C 3.147 22.994,3.267 23.466,3.414 24.006 C 3.614 24.742,3.754 25.136,3.977 25.584 C 4.280 26.197,4.790 27.001,5.154 27.441 C 5.465 27.817,6.080 28.288,6.584 28.538 C 7.011 28.750,7.033 28.769,7.005 28.909 C 6.970 29.083,7.067 29.409,7.213 29.606 C 7.270 29.683,7.416 29.803,7.538 29.873 C 7.753 29.996,7.796 30.000,8.898 30.000 L 10.035 30.000 10.197 29.819 C 10.346 29.652,10.357 29.615,10.327 29.365 C 10.309 29.216,10.294 28.611,10.294 28.022 L 10.293 26.950 9.587 26.916 C 8.402 26.858,8.059 26.738,6.907 25.973 C 5.486 25.031,4.288 24.077,3.507 23.265 C 3.309 23.059,3.147 22.921,3.147 22.957 M14.297 23.151 C 15.238 23.339,15.446 23.441,15.620 23.800 C 15.903 24.384,15.611 25.043,14.998 25.202 C 14.765 25.262,14.662 25.254,13.943 25.110 C 13.046 24.932,12.813 24.819,12.641 24.482 C 12.427 24.062,12.547 23.456,12.894 23.209 C 13.016 23.122,13.283 23.017,13.444 22.991 C 13.461 22.989,13.845 23.061,14.297 23.151 M26.747 23.046 C 27.045 23.129,27.237 23.280,27.366 23.532 C 27.592 23.975,27.448 24.565,27.052 24.822 C 26.914 24.912,26.610 25.000,26.057 25.110 C 25.338 25.254,25.235 25.262,25.002 25.202 C 24.391 25.043,24.097 24.384,24.378 23.804 C 24.552 23.444,24.728 23.354,25.627 23.165 C 26.583 22.963,26.485 22.974,26.747 23.046 M22.400 23.834 C 22.623 23.955,22.875 24.223,22.929 24.396 C 23.054 24.796,23.262 26.009,23.234 26.178 C 23.162 26.623,22.717 26.987,22.245 26.987 C 21.755 26.987,21.386 26.656,21.269 26.111 L 21.199 25.787 19.993 25.772 L 18.787 25.758 18.751 25.983 C 18.694 26.339,18.536 26.639,18.317 26.806 C 18.138 26.943,18.072 26.960,17.733 26.960 C 17.397 26.960,17.328 26.942,17.155 26.810 C 16.913 26.625,16.746 26.310,16.749 26.042 C 16.750 25.931,16.818 25.513,16.900 25.113 C 17.166 23.818,17.157 23.824,18.960 23.782 C 21.102 23.733,22.246 23.750,22.400 23.834 " fill="#1A1C1F" stroke="none" fill-rule="evenodd"></path></svg>
